symbols/web/sports_handball/materialsymbolsoutlined/sports_handball_wght500_40px.svg

<svg xmlns="http://www.w3.org/2000/svg" height="40" width="40"><path d="M26.667 14.542q-1.334 0-2.292-.979-.958-.98-.958-2.313 0-1.333.958-2.292Q25.333 8 26.667 8q1.333 0 2.291.958.959.959.959 2.292 0 1.333-.959 2.313-.958.979-2.291.979ZM15 39.792l-2.583-1.5 5.208-8.959-3-1.791-2.917 4.833-2.583-1.542 9.167-15.125q-1.667-1.541-2.521-3.437-.854-1.896-.854-3.938 0-1.625.375-3.062.375-1.438 1.208-3.021l2.583 1.458q-.583 1.125-.833 2.209Q18 7 18 8.083q0 2.042.958 3.709.959 1.666 3.125 2.958l4.042 2.375q2.458 1.417 3.604 3.687 1.146 2.271 1.146 4.855 0 1.666-.5 3.333-.5 1.667-1.333 3.167l-2.667-1.5q.667-1.25 1.042-2.459.375-1.208.375-2.458 0-1.458-.459-2.667-.458-1.208-1.375-2Zm7.75-33.25q-1.083 0-1.812-.75-.73-.75-.73-1.834 0-1.083.73-1.812.729-.729 1.812-.729 1.125 0 1.854.729.729.729.729 1.812 0 1.125-.75 1.855-.75.729-1.833.729Z"/></svg>

<svg xmlns="http://www.w3.org/2000/svg" height="40" width="40"><path d="M26.667 14.542Q25.333 14.542 24.375 13.563Q23.417 12.583 23.417 11.25Q23.417 9.917 24.375 8.958Q25.333 8 26.667 8Q28 8 28.958 8.958Q29.917 9.917 29.917 11.25Q29.917 12.583 28.958 13.563Q28 14.542 26.667 14.542ZM15 39.792 12.417 38.292 17.625 29.333 14.625 27.542 11.708 32.375 9.125 30.833 18.292 15.708Q16.625 14.167 15.771 12.271Q14.917 10.375 14.917 8.333Q14.917 6.708 15.292 5.271Q15.667 3.833 16.5 2.25L19.083 3.708Q18.5 4.833 18.25 5.917Q18 7 18 8.083Q18 10.125 18.958 11.792Q19.917 13.458 22.083 14.75L26.125 17.125Q28.583 18.542 29.729 20.812Q30.875 23.083 30.875 25.667Q30.875 27.333 30.375 29Q29.875 30.667 29.042 32.167L26.375 30.667Q27.042 29.417 27.417 28.208Q27.792 27 27.792 25.75Q27.792 24.292 27.333 23.083Q26.875 21.875 25.958 21.083ZM22.75 6.542Q21.667 6.542 20.938 5.792Q20.208 5.042 20.208 3.958Q20.208 2.875 20.938 2.146Q21.667 1.417 22.75 1.417Q23.875 1.417 24.604 2.146Q25.333 2.875 25.333 3.958Q25.333 5.083 24.583 5.813Q23.833 6.542 22.75 6.542Z"/></svg>
